packages/core/src/svgs/networks/mono/starknet.svg

<svg width="24" height="24" viewBox="0 0 24 24" fill="none" xmlns="http://www.w3.org/2000/svg">
<path fill-rule="evenodd" clip-rule="evenodd" d="M11.9999 21.9998C6.47703 21.9998 2 17.5227 2 11.9999C2 6.47704 6.47703 2 11.9999 2C17.5227 2 22 6.47704 22 11.9999C22 17.5227 17.5227 21.9998 11.9999 21.9998ZM19.7022 9.20033C19.3627 8.34385 18.7318 7.62271 17.8848 7.09071C17.0431 6.56458 15.8738 6.29607 14.7153 6.52496C14.143 6.63567 13.5885 6.84876 13.1019 7.13256C12.6175 7.41526 12.1834 7.7555 11.8076 8.1206C11.62 8.3037 11.4498 8.49474 11.2806 8.68689L10.8421 9.24588L10.1649 10.1458C10.1144 10.2135 10.0635 10.282 10.0125 10.3509C9.19072 11.459 8.28237 12.6839 6.84621 13.0624C5.67862 13.3701 5.02642 13.2256 4.36256 13.0785C4.17482 13.037 3.98616 12.9951 3.78464 12.9634C4.08727 13.803 4.54301 14.5448 5.1281 15.2231C5.72007 15.8895 6.45924 16.4969 7.40882 16.8964C8.34466 17.3048 9.52078 17.4513 10.6204 17.2302C11.723 17.0179 12.6906 16.5077 13.4727 15.9177C14.2568 15.3216 14.8912 14.6426 15.426 13.9367C15.5736 13.7416 15.6517 13.6325 15.7586 13.48L16.0538 13.0426C16.1569 12.9067 16.2554 12.7612 16.3536 12.6162C16.4508 12.4726 16.5479 12.3294 16.6489 12.196L16.7104 12.1092C17.0878 11.5769 17.4633 11.0471 17.8961 10.5571C18.1257 10.295 18.3678 10.0444 18.6535 9.80353C18.7962 9.68603 18.9503 9.57091 19.1208 9.46728C19.294 9.35548 19.4769 9.26798 19.7022 9.20033ZM7.83571 8.88148L7.58888 9.64415C7.55472 9.74965 7.40507 9.7484 7.37267 9.6424L7.13727 8.87633C7.08944 8.72063 6.96871 8.59793 6.81389 8.54773L6.05096 8.30088C5.94546 8.26678 5.9466 8.11739 6.05269 8.08474L6.81905 7.84934C6.97473 7.80144 7.09719 7.68074 7.14734 7.52594L7.39417 6.7633C7.42832 6.65775 7.57797 6.6589 7.61037 6.7647L7.84576 7.53109C7.89361 7.68679 8.01431 7.80919 8.16916 7.85939L8.93205 8.10624C9.0373 8.14034 9.03645 8.28998 8.93035 8.32238L8.16396 8.55808C8.00832 8.60568 7.88588 8.72638 7.83571 8.88148ZM17.0733 17.4553C16.4443 17.4553 15.9341 16.9452 15.9341 16.3161C15.9341 15.6871 16.4443 15.1768 17.0733 15.1768C17.7024 15.1768 18.212 15.6871 18.212 16.3161C18.212 16.9452 17.7024 17.4553 17.0733 17.4553Z" fill="white"/>
</svg>

<svg xmlns="http://www.w3.org/2000/svg" width="24" height="24" fill="none" viewBox="0 0 24 24">
    <path fill="#fff" fill-rule="evenodd" d="M12 22C6.477 22 2 17.523 2 12S6.477 2 12 2s10 4.477 10 10-4.477 10-10 10m7.702-12.8c-.34-.856-.97-1.577-1.817-2.11a4.47 4.47 0 0 0-3.17-.565 5.2 5.2 0 0 0-1.613.608 6.8 6.8 0 0 0-1.294.988 10 10 0 0 0-.527.566l-.439.559-.677.9-.152.205c-.822 1.108-1.73 2.333-3.167 2.711-1.167.308-1.82.164-2.483.017a9 9 0 0 0-.578-.116c.302.84.758 1.582 1.343 2.26.592.666 1.331 1.274 2.28 1.673a5.5 5.5 0 0 0 3.212.334c1.103-.212 2.07-.722 2.853-1.312a10.2 10.2 0 0 0 1.953-1.981c.148-.195.226-.304.333-.457l.295-.437c.103-.136.201-.282.3-.427.097-.143.194-.287.295-.42l.061-.087c.378-.532.753-1.062 1.186-1.552.23-.262.472-.513.758-.753q.212-.179.467-.337c.173-.112.356-.199.581-.267M7.836 8.881l-.247.763a.113.113 0 0 1-.216-.002l-.236-.766a.5.5 0 0 0-.323-.328L6.05 8.3a.113.113 0 0 1 .002-.216l.766-.236a.5.5 0 0 0 .328-.323l.247-.763c.034-.105.184-.104.216.002l.236.766a.5.5 0 0 0 .323.328l.763.247c.105.034.104.184-.002.216l-.766.236a.5.5 0 0 0-.328.323m9.237 8.574a1.14 1.14 0 1 1 0-2.278 1.14 1.14 0 0 1 0 2.278" clip-rule="evenodd"/>
</svg>
